X:1
T:A faluban nincs több kislány
T: 
C:Hungarian song
Z:Public Domain
L:1/4
Q:1/4=160
M:4/4
K:C
V:1 treble nm="MusicXML Part"
%%MIDI program 0
V:1
"C" G, G, G G | G E G C |"G" B, C D2 | D E"C" C2!fine! :|"F" F E D D |"C" G G A G |"F" F G A z | %7
w: A fa- lu- ban|nincs több kis- lány,|csak ket- tõ,|csak ket- tõ,|A má- sik meg|a ka- pu- ban|ne- ve- ti,|
"G" F E D z!D.C.! |] %8
w: ne- ve- ti,|

